static/images/clients/svg/IZettle_Logo.svg

<svg enable-background="new 0 0 415 125" height="125" viewBox="0 0 415 125" width="415" xmlns="http://www.w3.org/2000/svg"><path d="m96.426 29.643-53.222 68.02h23.822l52.256-68.02z" fill="#a391e0"/><path d="m280.31 20.971h-18.326v20.059h-25.045v-20.059h-18.344v20.059h-16.968v15.98h16.968v57.99h18.344v-57.99h25.045v57.99h18.326v-57.99h16.965v-15.98h-16.965zm-103.569 48.652h-31.527c.586-8.516 7.744-15.074 16.276-14.918 9.024 0 14.778 6.641 15.33 14.918zm18.601 33.988-11.212-11.112c-5.049 5.399-12.039 8.569-19.428 8.808-10.616.399-19.637-7.689-20.394-18.285h52.67c2.325-26.543-14.365-43.744-35.843-43.744-22.029 0-36.394 17.871-36.394 39.015 0 23.151 17.242 38.463 39.133 38.463 12.315 0 24.354-4.866 31.527-13.144h-.059zm128.336 11.39v-104.453h-18.325v104.435zm-294.287 0v-71.271h-18.325v71.271zm89.892 0v-17.34h-76.079v17.34zm0-85.36v-17.321h-74.7v17.341zm-111.783-8.67c.001 7.03 5.701 12.729 12.731 12.728 7.028-.001 12.726-5.699 12.727-12.728-.001-7.029-5.701-12.728-12.731-12.727-7.029.002-12.727 5.699-12.727 12.727zm379.527 48.652h-31.527c.596-8.518 7.76-15.075 16.295-14.918 9.025 0 14.779 6.641 15.312 14.918zm18.619 33.988-11.229-11.112c-5.043 5.41-12.037 8.58-19.43 8.808-10.607.389-19.617-7.697-20.373-18.285h52.67c2.324-26.543-14.365-43.744-35.844-43.744-22.029 0-36.394 17.871-36.394 39.015 0 23.151 17.279 38.463 39.133 38.463 12.314 0 24.354-4.866 31.527-13.144h-.06z" fill="#283663"/></svg>

<?xml version="1.0" encoding="utf-8"?>
<!-- Generator: Adobe Illustrator 16.0.0, SVG Export Plug-In . SVG Version: 6.00 Build 0)  -->
<!DOCTYPE svg PUBLIC "-//W3C//DTD SVG 1.1//EN" "http://www.w3.org/Graphics/SVG/1.1/DTD/svg11.dtd">
<svg version="1.1" id="Layer_1" xmlns="http://www.w3.org/2000/svg" xmlns:xlink="http://www.w3.org/1999/xlink" x="0px" y="0px"
	 width="415px" height="125px" viewBox="0 0 415 125" enable-background="new 0 0 415 125" xml:space="preserve">
<g>
	<path fill="#A391E0" d="M96.426,29.643l-53.222,68.02h23.822l52.256-68.02H96.426z"/>
	<path fill="#283663" d="M280.31,20.971h-18.326v20.059h-25.045V20.971h-18.344v20.059h-16.968v15.98h16.968V115h18.344V57.01
		h25.045V115h18.326V57.01h16.965v-15.98H280.31V20.971z M176.741,69.623h-31.527c0.586-8.516,7.744-15.074,16.276-14.918
		c9.024,0,14.778,6.641,15.33,14.918H176.741z M195.342,103.611L184.13,92.499c-5.049,5.399-12.039,8.569-19.428,8.808
		c-10.616,0.399-19.637-7.689-20.394-18.285h52.67c2.325-26.543-14.365-43.744-35.843-43.744c-22.029,0-36.394,17.871-36.394,39.015
		c0,23.151,17.242,38.463,39.133,38.463c12.315,0,24.354-4.866,31.527-13.144H195.342z M323.678,115.001V10.548h-18.325v104.435
		L323.678,115.001z M29.391,115.001V43.73H11.066v71.271H29.391z M119.283,115.001v-17.34H43.204v17.34H119.283z M119.283,29.641
		V12.32h-74.7v17.341L119.283,29.641z M7.5,20.971c0.001,7.03,5.701,12.729,12.731,12.728c7.028-0.001,12.726-5.699,12.727-12.728
		c-0.001-7.029-5.701-12.728-12.731-12.727C13.198,8.246,7.5,13.943,7.5,20.971z M387.027,69.623H355.5
		c0.596-8.518,7.76-15.075,16.295-14.918c9.025,0,14.779,6.641,15.312,14.918H387.027z M405.646,103.611l-11.229-11.112
		c-5.043,5.41-12.037,8.58-19.43,8.808c-10.607,0.389-19.617-7.697-20.373-18.285h52.67c2.324-26.543-14.365-43.744-35.844-43.744
		c-22.029,0-36.394,17.871-36.394,39.015c0,23.151,17.279,38.463,39.133,38.463c12.314,0,24.354-4.866,31.527-13.144H405.646z"/>
</g>
</svg>
